X:1
T:Springlek efter Fjös Erik
O:Dalarna
R:Polska
Z:Anton Teljebäck 2007-12-01 
S:efter [[Personer/Fjös Erik]], Lima
S:känd genom [[Personer/Zara Helje]]
N: Finns också här: +, +
M:3/4
L:1/8
K:D
A>c {c/}A2 c>d | e>f g<f e>c | Ac A2 c>d | e<f [d2D2] :|
[dD]>e f<e f>g | a>b a<^g a2 | ff- fd e>f | (3geg (3fdf e>c | A/c/A- A2 c>d | ef- f2 d2 :|

